X: 1562
T: I Wish I Were A Bird
C:Hermann Lohr (1871-1943), lyrics by Charles Kingsley
B: australian traditional tunes wiki
M:3/4
L:1/4
R: Waltz
Q: 1/4=100
K:D
V:1 
A|"D"d2c|"Bm"B2A|"G"G3|GAB|"A7"c2B|A2G|"D"F3|FEF|
"G"B2A|G2F|"A7"E3|EFG|e2d|c>d c/B/|"D"A3|"A7"ABc|
"D"d2c|"Bm"B2A|"G"G3|GAB|"A7"c2B|A2G|"D"F3|FEF|
"G"B2A|G2F|"A7"E2c|c2B|A>BA|B2c|"D"d>dd|dDE||
"Bm"F>FF|FDF|"Em"G>GG|GFG|"A7"A>BA|B2c|"Em"edB|"A7"ADE|
"D"F>FF|FDF|"Em"G>GG|GFG|"A7"AdG|EDE|"D"D3-|D2||
% abcbook-tune_id 6342d53a7884d233a2a1f6eb


% abcbook-boost 0
% abcbook-tablature 
% abcbook-transpose 
% abcbook-lastupdated 1665324371197
% abcbook-soundfonts 
% abcbook-repeats 1
% NFF Book 2014

